X:1
T:Fantasia
T:~ Fantasia on a Theme by Thomas Tallis ~
T:Theme arranged for Solo Piano by BKH
T:Vaughn-Williams, Ralph
T:For Lady V, as always!
C:Vaughn-Williams, Ralph
%%score { ( 1 3 ) | ( 2 4 ) }
L:1/8
M:4/4
K:A
V:1 treble nm="Piano" snm="Pno."
V:3 treble 
V:2 bass 
V:4 bass 
V:1
|:"^Upper = Originally for Violin #1\nLower = Originally for Violin #2""^{" z2 [Be]2 [Be]2 [Be]2 | %1
 [Be]6 [Be]2 | [=ca]2 [da]2 B4 | [eg]2 [eg]4 [_ef]2 | e2 [ea]2 e4 | z2 [eg]2 [eg]2 [eg]2 | %6
 e4 z2 [eb]2 | e4 e4 | [eg]2 [ea]4 [eg]2 | [ea]2 [ea]2 [eg]4- | [eg]2 [e=g]2 e4 | %11
 [=fb]2 [=g=c']4 [gb]2 | [ea]2 [ea]2 =g2 z2 | [d=g]4 ^e2 [=c=e]2 | [Ae]2 A2 [Ae]4 | %15
 [=ce]2 [ea]2 z =g [c^e]2 | [=ce]4 [ca]2 =g^e | =c'b [=ca]2 [c=g]2 [ce]2 | %18
 [Aa]2 [da]2 [=ca]2 [ce][cf] | [Bg]8- :| [Bg]8 |] %21
V:2
|:"_Upper = Originally for Viola\nLower = Originally for\n               Cello (or bass)""_{"!ppp! z2!ped! [E,,E,]2 [E,,=G,]2 [E,,G,]2!ped-up! | %1
 [E,,=G,]6 [=G,,G,]2 | [=F,,A,]2 [F,,A,]2 [E,,B,]4 |!ped! [E,,B,]2 [E,,B,]4 [B,,,B,]2!ped-up! | %4
!ped! [E,,B,]4 [A,,,=C]2 [E,,B,]2!ped-up! |!ped! [E,,B,]2 [E,,E,]2 [E,,B,]2 [E,,B,]2!ped-up! | %6
!ped! [E,,B,]6 [=G,,=G,]2!ped-up! |!ped! [=F,,A,]2 [F,,A,]2 [E,,B,]4!ped-up! | %8
!ped! [E,,B,]2 [E,,B,]4 E,,2!ped-up! |!ped! [A,,,=C]2 [A,,,A,]2 [E,,B,]4-!ped-up! | %10
!ped! [E,,B,]2 [E,,E,]2 [E,,E,]3/2 z/ z F,!ped-up! |!ped! [D,,D,]4 z2 [=G,,,D,]2!ped-up! | %12
!ped! [A,,,=C,]2 [A,,,C,]2 E,,4!ped-up! |!ped! [E,,=G,]4 A,4!ped-up! | %14
!ped! [D,,=F,]2 [D,,F,]2 [A,,,E,]4!ped-up! |!ped! A,,,2 A,,,4 B,[A,,,A,]!ped-up! | %16
!ped! [=C,,A,]4 [C,,E,]2 [A,,,A,]2!ped-up! |!ped! =F,,,4 [=C,,=F,]2 C,,2!ped-up! | %18
!ped! =F,,,2 F,,,2 [A,,,D]2 [A,,,=C]2!ped-up! |!ped! .[E,,E,]8-!ped-up! :|!ped! [E,,E,]8!ped-up! |] %21
V:3
|: x8 | x8 | x8 | x8 | g4 x z g2 | x8 | g6 x2 | a2 a2 g2 z2 | x8 | x8 | x4 =g3 a | x8 | x4 d4- | %13
 x4 =c4 | x8 | x8 | x6 =c2 | =c2 x6 | x8 | x8 :| x8 |] %21
V:4
|: x8 | x8 | x8 | x8 | x8 | x8 | x8 | x8 | x6 B, z | x8 | x8 | x2 [=C,,=C,]2 x4 | x4 B,,2 z2 | %13
 x4 A,,,2 [=C,,E,]2 | x8 | A,4 =C4 | x8 | A,2 =G,2 x2 E,=F, | A,4 x4 | x8 :| x8 |] %21

